static/img/icons/social/icon-yelp.svg

<svg fill="none" height="25" viewBox="0 0 25 25" width="25" xmlns="http://www.w3.org/2000/svg"><path clip-rule="evenodd" d="m4 0c-2.20914 0-4 1.79086-4 4v17c0 2.2091 1.79086 4 4 4h17c2.2091 0 4-1.7909 4-4v-17c0-2.20914-1.7909-4-4-4zm1.03792 15.5459c-.10988-1.0601.02373-2.6573.34017-3.1645.15031-.2346.36567-.3568.60827-.3472.15822.0018.29975.0528 3.44307 1.3493.00176 0 .91857.3736.91857.3736.3323.1248.5336.4694.5125.8597-.0211.3806-.2391.6786-.5635.7612-.0053.0026-1.30531.4175-1.30531.4175-2.92534.9405-3.02203.9669-3.17761.959-.24261-.0088-.45533-.1521-.5819-.3929-.0923-.1741-.15559-.4659-.19426-.8157zm7.37238 6.4964c.051-.1477.0571-.2487.0659-3.3218 0 0 .007-1.358.0079-1.3712.0211-.3331-.1942-.6364-.5467-.7718-.363-.1397-.7542-.0536-.974.2198 0 0-.6416.7612-.6434.7612-2.2019 2.5869-2.2942 2.7065-2.34782 2.8594-.03252.0897-.0457.1864-.03516.2822.01319.1371.0756.2725.17844.399.51071.6066 2.95964 1.5075 3.74194 1.3739.2716-.0492.4694-.2021.5529-.4307zm7.4302-4.2019c-.1134.7885-1.7238 2.8375-2.4621 3.1319-.2558.1029-.502.0783-.6953-.0738-.1249-.0976-.2576-.2971-1.9927-3.1152l-.516-.8403c-.1978-.3006-.1609-.6988.087-1.0003.2382-.2936.5924-.4053.9027-.2848.0167.0079 1.2992.4316 1.2992.4316 2.9236.9598 3.0176.9959 3.1416 1.0891.189.1511.2751.3876.2356.6618zm-3.9732-4.1232c3.3226-.8052 3.451-.8474 3.5819-.9335.2013-.1354.3024-.3622.2848-.6382 0-.0028.0002-.0058.0004-.0088.0004-.0063.0008-.0128-.0004-.0193-.0852-.8157-1.5145-2.93765-2.2186-3.28222-.2496-.11954-.4993-.11163-.7067.02725-.1283.08351-.2224.21008-2.0015 2.64317 0 0-.8034 1.0944-.8131 1.1049-.2118.2576-.2153.6267-.0079.9432.2145.3279.5766.4878.9089.3955 0 0-.0132.0238-.0167.0282.1635-.0616.4562-.1336.9889-.2602zm-3.835-10.19495c.0466.27162.443 6.13459.5001 7.45135.0545 1.1225-.4272 1.2719-.5845 1.3203-.1591.0501-.6434.1995-1.2368-.763 0 0-4.01616-6.31919-4.11109-6.51345-.05802-.21976.01318-.46764.20656-.66893.60037-.6197 3.84213-1.52771 4.69043-1.31763.276.06944.4685.24524.5353.49136z" fill="#3a3c42" fill-rule="evenodd"/></svg>

<svg alt="yelp" width="25" height="25" viewBox="0 0 25 25" fill="none" xmlns="http://www.w3.org/2000/svg">
<path fill-rule="evenodd" clip-rule="evenodd" d="M4 0C1.79086 0 0 1.79086 0 4V21C0 23.2091 1.79086 25 4 25H21C23.2091 25 25 23.2091 25 21V4C25 1.79086 23.2091 0 21 0H4ZM5.03792 15.5459C4.92804 14.4858 5.06165 12.8886 5.37809 12.3814C5.5284 12.1468 5.74376 12.0246 5.98636 12.0342C6.14458 12.036 6.28611 12.087 9.42943 13.3835C9.43119 13.3835 10.348 13.7571 10.348 13.7571C10.6803 13.8819 10.8816 14.2265 10.8605 14.6168C10.8394 14.9974 10.6214 15.2954 10.297 15.378C10.2917 15.3806 8.99169 15.7955 8.99169 15.7955C6.06635 16.736 5.96966 16.7624 5.81408 16.7545C5.57147 16.7457 5.35875 16.6024 5.23218 16.3616C5.13988 16.1875 5.07659 15.8957 5.03792 15.5459ZM12.4103 22.0423C12.4613 21.8946 12.4674 21.7936 12.4762 18.7205C12.4762 18.7205 12.4832 17.3625 12.4841 17.3493C12.5052 17.0162 12.2899 16.7129 11.9374 16.5775C11.5744 16.4378 11.1832 16.5239 10.9634 16.7973C10.9634 16.7973 10.3218 17.5585 10.32 17.5585C8.1181 20.1454 8.0258 20.265 7.97218 20.4179C7.93966 20.5076 7.92648 20.6043 7.93702 20.7001C7.95021 20.8372 8.01262 20.9726 8.11546 21.0991C8.62617 21.7057 11.0751 22.6066 11.8574 22.473C12.129 22.4238 12.3268 22.2709 12.4103 22.0423ZM19.8405 17.8404C19.7271 18.6289 18.1167 20.6779 17.3784 20.9723C17.1226 21.0752 16.8764 21.0506 16.6831 20.8985C16.5582 20.8009 16.4255 20.6014 14.6904 17.7833L14.1744 16.943C13.9766 16.6424 14.0135 16.2442 14.2614 15.9427C14.4996 15.6491 14.8538 15.5374 15.1641 15.6579C15.1808 15.6658 16.4633 16.0895 16.4633 16.0895C19.3869 17.0493 19.4809 17.0854 19.6049 17.1786C19.7939 17.3297 19.88 17.5662 19.8405 17.8404ZM15.8673 13.7172C19.1899 12.912 19.3183 12.8698 19.4492 12.7837C19.6505 12.6483 19.7516 12.4215 19.734 12.1455C19.734 12.1427 19.7342 12.1397 19.7344 12.1367C19.7348 12.1304 19.7352 12.1239 19.734 12.1174C19.6488 11.3017 18.2195 9.17975 17.5154 8.83518C17.2658 8.71564 17.0161 8.72355 16.8087 8.86243C16.6804 8.94594 16.5863 9.07251 14.8072 11.5056C14.8072 11.5056 14.0038 12.6 13.9941 12.6105C13.7823 12.8681 13.7788 13.2372 13.9862 13.5537C14.2007 13.8816 14.5628 14.0415 14.8951 13.9492C14.8951 13.9492 14.8819 13.973 14.8784 13.9774C15.0419 13.9158 15.3346 13.8438 15.8673 13.7172ZM12.0323 3.52225C12.0789 3.79387 12.4753 9.65684 12.5324 10.9736C12.5869 12.0961 12.1052 12.2455 11.9479 12.2939C11.7888 12.344 11.3045 12.4934 10.7111 11.5309C10.7111 11.5309 6.69494 5.21171 6.60001 5.01745C6.54199 4.79769 6.61319 4.54981 6.80657 4.34852C7.40694 3.72882 10.6487 2.82081 11.497 3.03089C11.773 3.10033 11.9655 3.27613 12.0323 3.52225Z" fill="#3A3C42"/>
</svg>
